public/svg/manager.svg

<svg enable-background="new 0 0 496 496" viewBox="0 0 496 496" xmlns="http://www.w3.org/2000/svg" xmlns:xlink="http://www.w3.org/1999/xlink"><linearGradient id="a"><stop offset="0" stop-color="#4cb5ea"/><stop offset="1" stop-color="#5a6cdd"/></linearGradient><linearGradient id="b" gradientUnits="userSpaceOnUse" x1="113.4092" x2="148.4092" xlink:href="#a" y1="9.2272" y2="505.2272"/><linearGradient id="c" gradientUnits="userSpaceOnUse" x1="193.0128" x2="228.0128" xlink:href="#a" y1="3.61" y2="499.61"/><linearGradient id="d" gradientUnits="userSpaceOnUse" x1="149.2389" x2="184.2389" xlink:href="#a" y1="6.6989" y2="502.6989"/><linearGradient id="e" gradientUnits="userSpaceOnUse" x1="219.9151" x2="254.9151" xlink:href="#a" y1="1.7116" y2="497.7116"/><path d="m136 216c0 4.4-3.6 8-8 8s-8-3.6-8-8 3.6-8 8-8 8 3.6 8 8z" fill="url(#b)"/><path d="m216 216c0 4.4-3.6 8-8 8s-8-3.6-8-8 3.6-8 8-8 8 3.6 8 8z" fill="url(#c)"/><path d="m200 272h-16c0 8.8-7.2 16-16 16s-16-7.2-16-16h-16c0 17.6 14.4 32 32 32s32-14.4 32-32z" fill="url(#d)"/><path d="m480 288v-128h-64v-64h-16v-64h-16v-32h-112v32h-16v56.4c-19.9-20-47.4-32.4-77.8-32.4-29.3 0-56.9 11.4-77.7 32.2l-8.5 8.5c-25.6 6.3-44 29.5-44 56.1v87.2c0 20.4 15.5 37.2 35.3 39.5 5.8 20.8 19 38.6 36.7 50.1v16.6l-81.7 27.2c-22.9 7.7-38.3 29.1-38.3 53.2v69.4h336v-69.4c0-24.1-15.4-45.5-38.3-53.1l-81.7-27.3v-10.2h264c8.8 0 16-7.2 16-16v-16c0-8.8-7.2-16-16-16zm-64 0v-80h48v80zm-64 0h-32v-64h32zm-48-80v80h-54.1c1.1-2.8 2-5.6 2.8-8.5 19.8-2.4 35.3-19.1 35.3-39.5v-48h96v-64h-102.9c-2-5.6-4.5-10.9-7.3-16h126.2v176h-32v-80zm-48 9.5c9.3 3.3 16 12.1 16 22.5 0 10.5-6.9 19.4-16.3 22.6.2-2.2.3-4.4.3-6.6zm112-73.5v32h-32v-32zm-48 32h-32v-10.2c0-7.5-.8-14.8-2.2-21.8h34.2zm32-80h-16v-16h16zm-32 0h-16v-16h16zm144 80v16h-48v-16zm-176-160h80v16h-80zm96 32v48h-16v-32h-80v32h-16v-48zm-320 192c0-10.4 6.7-19.2 16-22.5v38.5c0 2.2.2 4.4.3 6.6-9.4-3.2-16.3-12.1-16.3-22.6zm16-74.2v35c-5.9 1.2-11.3 3.9-16 7.4v-55.4c0-19.8 14.1-37.1 33.6-40.9l2.4-.5 11.9-11.9c17.7-17.7 41.2-27.5 66.3-27.5 51.7 0 93.8 42.1 93.8 93.8v42.4c-4.7-3.5-10.1-6.2-16-7.4v-35l-9.9 2.5c-.3.1-31.8 7.8-78.1 7.8s-77.8-7.7-78.1-7.8zm16 90.2v-70.2c13.2 2.4 38.8 6.2 72 6.2s58.8-3.7 72-6.2v70.2c0 39.7-32.3 72-72 72s-72-32.3-72-72zm72 88c11.3 0 22.1-2.2 32-6.1v10.8l-32 32-32-32v-10.8c9.9 3.9 20.7 6.1 32 6.1zm-9.2 104h18.4l5.3 32h-29.1zm20.9-16h-23.4l-8.5-12.7 20.2-16.8 20.2 16.8zm-53.9-70.8 30.3 30.3-32.3 26.9-17-50.9zm-109.8 65.4c0-17.2 11-32.5 27.4-37.9l48.4-16.1 24.4 73.1 19.3-16.1 8.2 12.2-6.4 38.2h-121.3zm304 0v53.4h-121.2l-6.4-38.2 8.2-12.2 19.3 16.1 24.4-73.1 48.4 16.1c16.3 5.4 27.3 20.7 27.3 37.9zm-90.9-59.1-17 50.9-32.3-26.9 30.3-30.3zm250.9-47.5h-251.8c5.1-4.8 9.6-10.1 13.4-16h238.4z" fill="url(#e)"/></svg>

<?xml version="1.0" encoding="utf-8"?>
<!-- Generator: Adobe Illustrator 24.0.3, SVG Export Plug-In . SVG Version: 6.00 Build 0)  -->
<svg version="1.1" id="Calque_1" xmlns="http://www.w3.org/2000/svg" xmlns:xlink="http://www.w3.org/1999/xlink" x="0px" y="0px"
	 viewBox="0 0 496 496" style="enable-background:new 0 0 496 496;" xml:space="preserve">
<style type="text/css">
	.st0{fill:url(#SVGID_1_);}
	.st1{fill:url(#SVGID_2_);}
	.st2{fill:url(#SVGID_3_);}
	.st3{fill:url(#SVGID_4_);}
</style>
<linearGradient id="SVGID_1_" gradientUnits="userSpaceOnUse" x1="113.4092" y1="9.2272" x2="148.4092" y2="505.2272">
	<stop  offset="0" style="stop-color:#4CB5EA"/>
	<stop  offset="1" style="stop-color:#5A6CDD"/>
</linearGradient>
<path class="st0" d="M136,216c0,4.4-3.6,8-8,8s-8-3.6-8-8s3.6-8,8-8S136,211.6,136,216z"/>
<linearGradient id="SVGID_2_" gradientUnits="userSpaceOnUse" x1="193.0128" y1="3.61" x2="228.0128" y2="499.61">
	<stop  offset="0" style="stop-color:#4CB5EA"/>
	<stop  offset="1" style="stop-color:#5A6CDD"/>
</linearGradient>
<path class="st1" d="M216,216c0,4.4-3.6,8-8,8s-8-3.6-8-8s3.6-8,8-8S216,211.6,216,216z"/>
<linearGradient id="SVGID_3_" gradientUnits="userSpaceOnUse" x1="149.2389" y1="6.6989" x2="184.2389" y2="502.6989">
	<stop  offset="0" style="stop-color:#4CB5EA"/>
	<stop  offset="1" style="stop-color:#5A6CDD"/>
</linearGradient>
<path class="st2" d="M200,272h-16c0,8.8-7.2,16-16,16s-16-7.2-16-16h-16c0,17.6,14.4,32,32,32S200,289.6,200,272z"/>
<linearGradient id="SVGID_4_" gradientUnits="userSpaceOnUse" x1="219.9151" y1="1.7116" x2="254.9151" y2="497.7116">
	<stop  offset="0" style="stop-color:#4CB5EA"/>
	<stop  offset="1" style="stop-color:#5A6CDD"/>
</linearGradient>
<path class="st3" d="M480,288V160h-64V96h-16V32h-16V0H272v32h-16v56.4c-19.9-20-47.4-32.4-77.8-32.4c-29.3,0-56.9,11.4-77.7,32.2
	L92,96.7c-25.6,6.3-44,29.5-44,56.1V240c0,20.4,15.5,37.2,35.3,39.5c5.8,20.8,19,38.6,36.7,50.1v16.6l-81.7,27.2
	C15.4,381.1,0,402.5,0,426.6V496h336v-69.4c0-24.1-15.4-45.5-38.3-53.1L216,346.2V336h264c8.8,0,16-7.2,16-16v-16
	C496,295.2,488.8,288,480,288z M416,288v-80h48v80H416z M352,288h-32v-64h32V288z M304,208v80h-54.1c1.1-2.8,2-5.6,2.8-8.5
	c19.8-2.4,35.3-19.1,35.3-39.5v-48h96v-64H281.1c-2-5.6-4.5-10.9-7.3-16H400v176h-32v-80H304z M256,217.5c9.3,3.3,16,12.1,16,22.5
	c0,10.5-6.9,19.4-16.3,22.6c0.2-2.2,0.3-4.4,0.3-6.6V217.5z M368,144v32h-32v-32H368z M320,176h-32v-10.2c0-7.5-0.8-14.8-2.2-21.8
	H320V176z M352,96h-16V80h16V96z M320,96h-16V80h16V96z M464,176v16h-48v-16H464z M288,16h80v16h-80V16z M384,48v48h-16V64h-80v32
	h-16V48H384z M64,240c0-10.4,6.7-19.2,16-22.5V256c0,2.2,0.2,4.4,0.3,6.6C70.9,259.4,64,250.5,64,240z M80,165.8v35
	c-5.9,1.2-11.3,3.9-16,7.4v-55.4c0-19.8,14.1-37.1,33.6-40.9l2.4-0.5l11.9-11.9C129.6,81.8,153.1,72,178.2,72
	c51.7,0,93.8,42.1,93.8,93.8v42.4c-4.7-3.5-10.1-6.2-16-7.4v-35l-9.9,2.5c-0.3,0.1-31.8,7.8-78.1,7.8s-77.8-7.7-78.1-7.8L80,165.8z
	 M96,256v-70.2c13.2,2.4,38.8,6.2,72,6.2s58.8-3.7,72-6.2V256c0,39.7-32.3,72-72,72S96,295.7,96,256z M168,344
	c11.3,0,22.1-2.2,32-6.1v10.8l-32,32l-32-32v-10.8C145.9,341.8,156.7,344,168,344z M158.8,448h18.4l5.3,32h-29.1L158.8,448z
	 M179.7,432h-23.4l-8.5-12.7l20.2-16.8l20.2,16.8L179.7,432z M125.8,361.2l30.3,30.3l-32.3,26.9l-17-50.9L125.8,361.2z M16,426.6
	c0-17.2,11-32.5,27.4-37.9l48.4-16.1l24.4,73.1l19.3-16.1l8.2,12.2l-6.4,38.2H16V426.6z M320,426.6V480H198.8l-6.4-38.2l8.2-12.2
	l19.3,16.1l24.4-73.1l48.4,16.1C309,394.1,320,409.4,320,426.6z M229.1,367.5l-17,50.9l-32.3-26.9l30.3-30.3L229.1,367.5z M480,320
	H228.2c5.1-4.8,9.6-10.1,13.4-16H480V320z"/>
</svg>
